X:2090
T:Friar's Oak. HSJJ.103
O:england
M:6/8
L:1/8
S:HSJ Jackson,Wyresdale,Lancs.1823
R:Jig
A:Lancashire
H:1823
K:G
g2d BGB|c2A FDF|GBd Gce|ABG FED|g2d BGB|c2A FDF|GBd Gce|defg3:|
|:AFD BGD|cAF dBG|ecA dBG|ABG FED|FAc GBd|Ace dfg|ecA dBG|cAFG3:|]


